public/images/like-tag.svg

<svg width="44" height="44" fill="none" xmlns="http://www.w3.org/2000/svg"><rect rx="9" width="44" height="44" fill="#F0F3F8" style="mix-blend-mode:normal"/><path d="m18.86 24.4 2.15 1.66c.28.28.9.42 1.32.42h2.64c.83 0 1.73-.63 1.94-1.46l1.67-5.05c.35-.97-.28-1.8-1.32-1.8h-2.77c-.41 0-.76-.35-.69-.83l.34-2.21c.14-.63-.28-1.32-.9-1.52-.57-.22-1.26.07-1.52.48l-2.84 4.23" stroke="#1B31FF" stroke-width="1.8"/><path d="M15.33 17.61c0-.97.41-1.32 1.39-1.32h.69c.97 0 1.39.35 1.39 1.32v6.79c0 .97-.42 1.32-1.39 1.32h-.69c-.98 0-1.39-.35-1.39-1.32v-6.79z" stroke="#1B31FF" stroke-width="1.8" stroke-linejoin="round"/><path d="M28.98 31.14c-1.07 0-2.08.42-2.82 1.16l-2.28 2.26c-1.05 1.02-2.74 1.02-3.78 0l-2.28-2.26A4.014 4.014 0 0 0 15 31.14h-1c-2.22 0-4-1.77-4-3.96V12.64c0-2.19 1.78-3.96 4-3.96h16c2.21 0 4 1.77 4 3.96v14.54c0 2.18-1.79 3.96-4 3.96h-1.02z" stroke="#1B31FF" stroke-width="1.8" stroke-linejoin="round"/></svg>

<svg width="44.000000" height="44.000000" viewBox="0 0 44 44" fill="none" xmlns="http://www.w3.org/2000/svg" xmlns:xlink="http://www.w3.org/1999/xlink">
	<desc>
			Created with Pixso.
	</desc>
	<defs/>
	<g style="mix-blend-mode:normal">
		<rect id="Rectangle 39" rx="9.000000" width="44.000000" height="44.000000" fill="#F0F3F8" fill-opacity="1.000000"/>
	</g>
	<path id="Vector" d="M18.86 24.4L21.01 26.06C21.29 26.34 21.91 26.48 22.33 26.48L24.97 26.48C25.8 26.48 26.7 25.85 26.91 25.02L28.58 19.97C28.93 19 28.3 18.17 27.26 18.17L24.49 18.17C24.08 18.17 23.73 17.82 23.8 17.34L24.14 15.13C24.28 14.5 23.86 13.81 23.24 13.61C22.67 13.39 21.98 13.68 21.72 14.09L18.88 18.32" stroke="#1B31FF" stroke-opacity="1.000000" stroke-width="1.800000"/>
	<path id="Vector" d="M15.33 17.61C15.33 16.64 15.74 16.29 16.72 16.29L17.41 16.29C18.38 16.29 18.8 16.64 18.8 17.61L18.8 24.4C18.8 25.37 18.38 25.72 17.41 25.72L16.72 25.72C15.74 25.72 15.33 25.37 15.33 24.4L15.33 17.61Z" stroke="#1B31FF" stroke-opacity="1.000000" stroke-width="1.800000" stroke-linejoin="round"/>
	<path id="Vector" d="M28.98 31.14C27.91 31.14 26.9 31.56 26.16 32.3L23.88 34.56C22.83 35.58 21.14 35.58 20.1 34.56L17.82 32.3C17.08 31.56 16.05 31.14 15 31.14L14 31.14C11.78 31.14 10 29.37 10 27.18L10 12.64C10 10.45 11.78 8.68 14 8.68L30 8.68C32.21 8.68 34 10.45 34 12.64L34 27.18C34 29.36 32.21 31.14 30 31.14L28.98 31.14Z" stroke="#1B31FF" stroke-opacity="1.000000" stroke-width="1.800000" stroke-linejoin="round"/>
	<g opacity="0.000000">
		<path id="Vector" d="M6 6L38 6L38 38L6 38L6 6ZM7.8 36.2L7.8 7.79L36.19 7.79L36.19 36.2L7.8 36.2Z" fill="#1B31FF" fill-opacity="1.000000" fill-rule="evenodd"/>
	</g>
</svg>
